X:11
T:Polkett
T:efter Pelle Fors
Z:Björn Ek 2008-12-31
O:Vikbolandet, Östergötland
S:efter Pelle Fors
B:Låtar efter Pelle Fors
D:Erik Pekkari - Gubbstöt
R:Polka
M:2/4
L:1/16
K:G
%
|:D2GG G2BB|B2G2 e4|e2dd d2FF|A2G2 GFG2|
D2GG G2BB  |B2G2 e4|e2dd d2FF|A2G2 G4 :|
%
|:d2GG G2AB|cBAG F2F2|d2FF F2F2|d2GG G2G2|
d2GG G2AB  |cBAG F2F2|e2dd d2FF|A2G2 G4 :|
%

